X: 4
T: Josefin's
R: waltz
M: 3/4
L: 1/8
K: Fmaj
|: C2 F2 G2 | A2 c2 B2 | A2 G2 F2 | C4 D2 | B,3 B, B,2 | D2 F2 E2 | D6 | C6 |
C2 F2 G2 | A2 c2 B2 | A2 G2 F2 | C4 D2 | B,3 B, B,2 | C2 E2 F2 | G6- |[1 G6 :|[2 G2 ||
|: A2 B2 |c2 A2 c2 | f4 e2 | d6 | c6 | B2 d2 c2 | B2 A2 G2 | A3 B A2 | G2 A2 B2 |
c2 A2 c2 | f4 e2 | d6 | c6 | B2 d2 c2 | B2 A2 G2 | A3 B A2 | G2 A2 B2 |
A2 G2 F2 | E4 F2 | F6 | B,2 C2 B,2 | A,2 C2 F2 | E3 D E2 | F6- |[1 F2 :|[2 F6 |]


Tune 1016	Setting 21426

